X:1
T:Title
L:1/8
Q:1/4=120
M:4/4
K:Eb
V:1 treble nm="Grand Piano"
V:1
 z E2 D DC C2- | C E2 D DC C2- | C F2 =E F2 D2- | D E2 F D4- | D F2 =E F2 D2- | D F2 =E F2 D2- | %6
 D F2 A G2 D2- | D F2 A G4- | G c2 B d2 c2- | c B2 A c2 BA- | A A2 G B2 AG- | G A2 B G4- | %12
 G A2 A A2 D2- | D G2 G G2 C2- | C D2 E F2 G2- | G E2 D C4 | z GGG c2 cB | d c2 B BAAG- | %18
 GG G2 c2 cB | d c2 B c4- | c c2 e d2 F2- | F A2 d c2 G2- | GccB AG F2 | D E2 F G2 B2- | %24
 B B2 =A cB _A2 | G A2 B G4- | GAAA A2 D2- | DGGG G2 C2- | CDDE F2 G2 | GFDG C4- | CDDE F2 G2 | %31
 GFDG C4 |] %32

